images/Poolz.svg

<svg height="250" viewBox="0 0 250 250" width="250" xmlns="http://www.w3.org/2000/svg" xmlns:xlink="http://www.w3.org/1999/xlink"><linearGradient id="a" gradientTransform="scale(248.375 250)" gradientUnits="userSpaceOnUse" x1="0" x2="1" y1=".5" y2=".5"><stop offset="0" stop-color="#0bbdda"/><stop offset=".386652" stop-color="#7d58f2"/><stop offset="1" stop-color="#fb71ae"/></linearGradient><path d="m68.917969 0-68.917969 89.222656 24.597656 111.261719 99.589844 49.515625 99.59375-49.515625 24.59375-111.261719-68.917969-89.222656zm19.957031 16.105469h70.628906l-35.316406 45.71875zm-67.898438 71.789062 51.699219-66.925781 41.535157 53.773438-30.929688 40.039062zm158.726563-61.746093 46.238281 59.863281-62.460937 13.503906zm-45.539063 48.59375 26.328126-34.082032-11.714844 52.996094zm-9.976562 12.917968 13.46875 17.4375-32.339844 6.992188zm41.460938 27.839844 63.972656-13.828125-16.613282 75.140625zm-146.230469-10.820312 53.75 23.195312-37.800781 48.9375zm24.144531 87.359374 46.492188-60.195312 52.800781-11.414062-24.09375 108.996093zm113.214844-62.191406 48.035156 62.191406-69.414062 34.507813zm0 0" fill="url(#a)" fill-rule="evenodd"/></svg>

<svg xmlns="http://www.w3.org/2000/svg" xmlns:xlink="http://www.w3.org/1999/xlink" width="250px" height="250px" viewBox="0 0 250 250" version="1.1">
<defs>
<linearGradient id="linear0" gradientUnits="userSpaceOnUse" x1="-0.000000000000000222" y1="0.5" x2="1" y2="0.5" gradientTransform="matrix(248.375,0,0,250,0.000000000000006894,0.000000000000020817)">
<stop offset="0" style="stop-color:rgb(4.313726%,74.117649%,85.490197%);stop-opacity:1;"/>
<stop offset="0.386652" style="stop-color:rgb(49.019608%,34.509805%,94.901961%);stop-opacity:1;"/>
<stop offset="1" style="stop-color:rgb(98.431373%,44.313726%,68.235296%);stop-opacity:1;"/>
</linearGradient>
</defs>
<g id="surface1">
<path style=" stroke:none;fill-rule:evenodd;fill:url(#linear0);" d="M 68.917969 0 L 0 89.222656 L 24.597656 200.484375 L 124.1875 250 L 223.78125 200.484375 L 248.375 89.222656 L 179.457031 0 Z M 88.875 16.105469 L 159.503906 16.105469 L 124.1875 61.824219 Z M 20.976562 87.894531 L 72.675781 20.96875 L 114.210938 74.742188 L 83.28125 114.78125 Z M 179.703125 26.148438 L 225.941406 86.011719 L 163.480469 99.515625 Z M 134.164062 74.742188 L 160.492188 40.660156 L 148.777344 93.65625 Z M 124.1875 87.660156 L 137.65625 105.097656 L 105.316406 112.089844 Z M 165.648438 115.5 L 229.621094 101.671875 L 213.007812 176.8125 Z M 19.417969 104.679688 L 73.167969 127.875 L 35.367188 176.8125 Z M 43.5625 192.039062 L 90.054688 131.84375 L 142.855469 120.429688 L 118.761719 229.425781 Z M 156.777344 129.847656 L 204.8125 192.039062 L 135.398438 226.546875 Z M 156.777344 129.847656 "/>
</g>
</svg>
